src/icons/filter-list.icon.svg

<svg xmlns="http://www.w3.org/2000/svg" viewBox="0 0 24 24"><path d="M10 18h4v-2h-4v2zM3 6v2h18V6H3zm3 7h12v-2H6v2z" fill="currentColor" fill-rule="evenodd"/></svg>

<svg width="24px" height="24px" viewBox="0 0 24 24" version="1.1" xmlns="http://www.w3.org/2000/svg" xmlns:xlink="http://www.w3.org/1999/xlink">
    <!-- Generator: Sketch 49.2 (51160) - http://www.bohemiancoding.com/sketch -->
    <title>IconFilterList</title>
    <desc>Created with Sketch.</desc>
    <defs></defs>
    <g id="Page-1" stroke="none" stroke-width="1" fill="none" fill-rule="evenodd">
        <g id="IconFilterList">
            <path d="M10,18 L14,18 L14,16 L10,16 L10,18 L10,18 Z M3,6 L3,8 L21,8 L21,6 L3,6 L3,6 Z M6,13 L18,13 L18,11 L6,11 L6,13 L6,13 Z" id="Mask" fill="currentColor"></path>
        </g>
    </g>
</svg>
